X:1
T:When Jesus Returns for His Own
T:When Jesus Returns for His Own
T:Robert Emmett Winsett
T:Herbert Buffum, 1918
T:Public Domain Courtesy of the Cyber Hymnal™
T:Public Domain Courtesy of the Cyber Hymnal™
C:Robert Emmett Winsett
Z:Public Domain
Z:Courtesy of the Cyber Hymnal™
%%score ( 1 2 ) ( 3 4 )
L:1/8
Q:1/4=110
M:4/4
K:F
V:1 treble 
V:2 treble 
V:3 bass 
V:4 bass 
V:1
 (FG) | [FA]2 [FA]>[FA] [Ac]2 [Ac]>[Ac] | [FA]2 [FA]>[F^G] [FA]3 [CG] | %3
w: 1.~There’s *|com- ing a won- der- ful,|won- der- ful day, Its|
w: 2.~Then *|those who have suf- fered and|toiled for His name, Tho’|
w: 3.~Tri- *|umph- ant they’ll rise with their|Lord in the air, And|
w: 4.~No *|long- er we’ll think of the|tri- als down here, The|
w: 5.~Then *|let us be faith- ful, e’en|down un- to death, Nor|
 [DF]2 [DF]>[DG] [CF]2 [EG]>[E^G] | [FA]6 (FG) | [FA]2 [FA]>[FA] [Ac]2 [Ac]>[Ac] | %6
w: glo- ry has nev- er been|known; When *|free from our bur- dens we’re|
w: hat- ed, re- ject- ed, un-|known, No *|long- er shall suf- fer the|
w: sit with Him soon on His|throne, While *|those who once rid- i- culed|
w: days when we suf- fered a-|lone, For *|God’s lov- ing hand wipes a-|
w: ev- er our trou- bles be-|moan, But *|ren- der Him praise, and re-|
 [FA]2 [FA]>[F^G] [FA]3 !fermata![Fd] | [Fc]2 [FA]>F [FA]2 [FA][EG] | F6 ||"^Refrain" [FA]2 | %10
w: go- ing a- way, As|Je- sus re- turns for His|own.||
w: world’s scorn and shame, When|Je- sus re- turns for His|own.||
w: weep in des- pair, When|Je- sus re- turns for His|own.|When|
w: way ev- ’ry tear, When|Je- sus re- turns for His|own.||
w: joice full of faith, That|we may be count- ed His|own.||
 [Fc]2 [Fc][Fc] (dc)[FA][CF] | c6 [FA]2 | [Ac]2 [Bd][Ac] [FA]2 [CG][DF] | G6 (FG) | %14
w: ||||
w: ||||
w: Je- sus re- turns * for His|own, And|car- ries us up to His|throne, There’ll *|
w: ||||
w: ||||
 [FA]2 [FA][FA] [FB] [FA]2 (G/F/) | [Fc]2 [Fc][Fc] [Fd] [Fc]2 [Fd] | [Fc]2 [FA]>F [FA]2 [FA][EG] | %17
w: |||
w: |||
w: be no more sad- ness, But *|all will be glad- ness When|Je- sus re- turns for His|
w: |||
w: |||
 F6 |] %18
w: |
w: |
w: own.|
w: |
w: |
V:2
 C2 | x8 | x8 | x8 | x6 C2 | x8 | x8 | x7/2 F/ x4 | (F2 DD C2) || x2 | x4 F2 x2 | (F2 FG F2) x2 | %12
 x8 | (E2 EE E2) C2 | x7 C | x8 | x7/2 F/ x4 | (F2 DD C2) |] %18
V:3
 (A,B,) | [F,C]2 [F,C]>[F,C] [F,F]2 [F,F]>[F,F] | [F,C]2 [F,C]>[F,=B,] [F,C]3 [A,,C] | %3
 [B,,B,]2 [B,,B,]>[B,,B,] [A,,C]2 [C,C]>[C,C] | ([F,C]2 [F,C][F,C] [F,C]2) (A,B,) | %5
 [F,C]2 [F,C]>[F,C] [F,F]2 [F,F]>[F,F] | [F,C]2 [F,C]>[F,D] [F,C]3 !fermata![B,,B,] | %7
 [C,A,]2 [D,F,]>[D,A,] [C,C]2 [C,C][C,B,] | (A,2 B,B, A,2) || [F,C]2 | %10
 [F,A,]2 [F,A,][F,A,] (B,A,)[F,C][F,A,] | ([F,A,]2 [C,G,][C,B,] [F,A,]2 [F,C]2) | %12
 [F,F]2 [F,F][F,F] [F,C]2 [E,C][D,=B,] | ([C,C]2 [C,C][C,C] [C,C]2) (A,B,) | %14
 [F,C]2 [F,C][F,C] [F,D] [F,C]2 (B,/A,/) | [F,A,]2 [F,A,][F,A,] [F,B,] [F,A,]2 [B,,B,] | %16
 [C,A,]2 [D,F,]>[D,A,] [C,C]2 [C,C][C,B,] | (A,2 B,B, A,2) |] %18
V:4
 F,2 | x8 | x8 | x8 | x6 F,2 | x8 | x8 | x8 | F,6 || x2 | x4 F,2 x2 | x8 | x8 | x6 F,2 | x7 F, | %15
 x8 | x8 | F,6 |] %18

